X: 20202
T: GOVERNOR DORR'S MARCH
C:
%R: march
B: Elias Howe "The Musician's Companion" 1843 p.20 #2
S: http://imslp.org/wiki/The_Musician's_Companion_(Howe,_Elias)
Z: 2015 John Chambers <jc:trillian.mit.edu>
M: C
L: 1/8
K: D
% - - - - - - - - - - - - - - - - - - - - - - - - -
a>a |\
a4 fz bz | az (3(aaa) az b2 | gz (3(ggg) gz a2 | fz dz ^g4 |\
a4 e2 c2 | f2 (3(fff) d2 B2 | b>a^g>f e>dc>B | A2 a>a a2 |]
e2 |\
b4 ^g2 e2 | a2 a4 .e.c | (dB).b.a .g.f.e.d | c2 z2 a2 a>a |\
a>fb>a g>fe>d | B2 g4 b>b | a>bg>a f>ge>f | .d.c/.B/ (AG).F.E "^D.C.".D |]
% - - - - - - - - - - - - - - - - - - - - - - - - -

%%sep 1 1 500

